modules/zondicons/icons/hard-drive.svg

<?xml version="1.0" encoding="UTF-8" standalone="no"?>
<svg width="20px" height="20px" viewBox="0 0 20 20" version="1.1" xmlns="http://www.w3.org/2000/svg" xmlns:xlink="http://www.w3.org/1999/xlink">
    <!-- Generator: Sketch 3.7.2 (28276) - http://www.bohemiancoding.com/sketch -->
    <title>hard-drive</title>
    <desc>Created with Sketch.</desc>
    <defs></defs>
    <g id="Page-1" stroke="none" stroke-width="1" fill="none" fill-rule="evenodd">
        <g id="hard-drive" fill="#000000">
            <path d="M15,12 C15,14.7614237 12.7614237,17 10,17 C7.23857625,17 5,14.7614237 5,12 C5,9.23857625 7.23857625,7 10,7 C10.8664249,7 11.6813778,7.22037768 12.3918628,7.60813715 L15,5 L15,12 Z M2,1.99079514 C2,0.891309342 2.89451376,-5.98479599e-16 3.99406028,-5.98479599e-16 L16.0059397,-5.98479599e-16 C17.1072288,-5.98479599e-16 18,0.898212381 18,1.99079514 L18,18.0092049 C18,19.1086907 17.1054862,20 16.0059397,20 L3.99406028,20 C2.8927712,20 2,19.1017876 2,18.0092049 L2,1.99079514 Z M10,14 C11.1045695,14 12,13.1045695 12,12 C12,10.8954305 11.1045695,10 10,10 C8.8954305,10 8,10.8954305 8,12 C8,13.1045695 8.8954305,14 10,14 Z M6,3 L10,3 L10,5 L6,5 L6,3 Z M4,3 C4.55228475,3 5,2.55228475 5,2 C5,1.44771525 4.55228475,1 4,1 C3.44771525,1 3,1.44771525 3,2 C3,2.55228475 3.44771525,3 4,3 Z M4,19 C4.55228475,19 5,18.5522847 5,18 C5,17.4477153 4.55228475,17 4,17 C3.44771525,17 3,17.4477153 3,18 C3,18.5522847 3.44771525,19 4,19 Z M16,19 C16.5522847,19 17,18.5522847 17,18 C17,17.4477153 16.5522847,17 16,17 C15.4477153,17 15,17.4477153 15,18 C15,18.5522847 15.4477153,19 16,19 Z M16,3 C16.5522847,3 17,2.55228475 17,2 C17,1.44771525 16.5522847,1 16,1 C15.4477153,1 15,1.44771525 15,2 C15,2.55228475 15.4477153,3 16,3 Z" id="Combined-Shape"></path>
        </g>
    </g>
</svg>

<svg width="20" height="20" viewBox="0 0 20 20" xmlns="http://www.w3.org/2000/svg"><path d="M15 12a5 5 0 1 1-2.608-4.392L15 5v7zM2 1.99C2 .892 2.895 0 3.994 0h12.012C17.107 0 18 .898 18 1.99v16.02c0 1.099-.895 1.99-1.994 1.99H3.994A1.997 1.997 0 0 1 2 18.01V1.99zM10 14a2 2 0 1 0 0-4 2 2 0 0 0 0 4zM6 3h4v2H6V3zM4 3a1 1 0 1 0 0-2 1 1 0 0 0 0 2zm0 16a1 1 0 1 0 0-2 1 1 0 0 0 0 2zm12 0a1 1 0 1 0 0-2 1 1 0 0 0 0 2zm0-16a1 1 0 1 0 0-2 1 1 0 0 0 0 2z" fill="#000" fill-rule="evenodd"/></svg>
